X:1
T:Title
%%score { 1 | ( 2 3 ) }
L:1/8
M:2/4
K:D
V:1 treble nm="Grand Piano"
V:2 bass 
V:3 bass 
V:1
 z2 z[Q:1/4=94] [FA] | [FA]2 [DF][EG] | [FA] [Fd]2 [FA] | B2 GB | [GB] A2 [DFA] | %5
 [DFA] [A,EG]2 [DF] | [GB] [FA]2 [DF] | [CE]2 [EG][DF] | [CE]3 [FA] | [FA]2 [DF][EG] | %10
 [FA] [Fd]2 [FA] | B2 GB | [GB] [FA]2 [FA] | [Fd]2 [Ac][GB] |[M:5/8] [FA] [Fd]3 [DF] | %15
[M:2/4] [CA]2 [CG]>[A,C] |[M:3/8] [A,D]3 |[M:1/8] [FA] |[M:2/4] [FA]2 [DF][EG] | [FA] [Fd]2 [FA] | %20
 B2 GB | [GB] A2 [DFA] | [DFA] [A,EG]2 [DF] | [GB] [FA]2 [DF] | [CE]2 [EG][DF] | [CE]3 [FA] | %26
 [FA]2 [DF][EG] | [FA] [Fd]2 [FA] | B2 GB | [GB] [FA]2 [FA] | [Fd]2 [Ac][GB] | %31
[M:5/8] [FA] [Fd]3 [DF] |[M:2/4] [CA]2 [CG]>C |[M:3/8] D3 |] %34
V:2
 z2 z [D,D] | [D,D]2 [D,A,][D,D] | [D,D] [D,A,]2 [D,D] | [G,DG]2 [G,B,D][G,DG] | z F2[K:bass] D, | %5
 A,, A,,2 A,, | [D,D] [D,D]2 [D,A,] | [A,,A,]2 [A,,A,][A,,A,] | [A,,A,]3 [D,D] | %9
 [D,D]2 [D,A,][D,D] | [D,D] [D,A,]2 [D,D] | [G,DG]2 [G,B,D][G,DG] | [D,D]3 [D,D] | %13
 [D,A,]2 [D,A,][D,D] |[M:5/8] [D,D] [D,A,]3 [D,A,] |[M:2/4] [A,,A,]2 [A,,A,]>[A,,G,] | %16
[M:3/8] [D,F,]3 |[M:1/8] [D,D] |[M:2/4] [D,D]2 [D,A,][D,D] | [D,D] [D,A,]2 [D,D] | %20
 [G,DG]2 [G,B,D][G,DG] | z F2[K:bass] D, | A,, A,,2 A,, | [D,D] [D,D]2 [D,A,] | %24
 [A,,A,]2 [A,,A,][A,,A,] | [A,,A,]3 [D,D] | [D,D]2 [D,A,][D,D] | [D,D] [D,A,]2 [D,D] | %28
 [G,DG]2 [G,B,D][G,DG] | [D,D]3 [D,D] | [D,A,]2 [D,A,][D,D] |[M:5/8] [D,D] [D,A,]3 [D,A,] | %32
[M:2/4] [A,,A,]2 [A,,A,]>[A,,G,A,] |[M:3/8] [D,F,A,]3 |] %34
V:3
 x4 | x4 | x4 | x4 | [D,D]4[K:bass] | x4 | x4 | x4 | x4 | x4 | x4 | x4 | x4 | x4 |[M:5/8] x5 | %15
[M:2/4] x4 |[M:3/8] x3 |[M:1/8] x |[M:2/4] x4 | x4 | x4 | [D,D]4[K:bass] | x4 | x4 | x4 | x4 | x4 | %27
 x4 | x4 | x4 | x4 |[M:5/8] x5 |[M:2/4] x4 |[M:3/8] x3 |] %34

